src/assets/icons/days,simple,sunday.svg

<svg width="48" height="48" viewBox="0 0 48 48" fill="none" xmlns="http://www.w3.org/2000/svg">
<rect opacity="0.2" x="5" y="5" width="38" height="38" rx="4" fill="black"/>
<path d="M5 13C5 9.22876 5 7.34315 6.17157 6.17157C7.34315 5 9.22876 5 13 5H35C38.7712 5 40.6569 5 41.8284 6.17157C43 7.34315 43 9.22876 43 13V15H5V13Z" fill="black"/>
<path d="M20.3814 25.6378H23.3288C23.2862 23.0455 21.1555 21.2557 17.9169 21.2557C14.728 21.2557 12.3913 23.017 12.4055 25.6591C12.3984 27.804 13.9112 29.0327 16.3686 29.6222L17.9524 30.0199C19.5362 30.4034 20.4169 30.858 20.424 31.8381C20.4169 32.9034 19.4084 33.6278 17.8459 33.6278C16.2479 33.6278 15.0973 32.8892 14.9979 31.4332H12.022C12.1001 34.5795 14.3516 36.206 17.8814 36.206C21.4325 36.206 23.5206 34.5085 23.5277 31.8452C23.5206 29.4233 21.6953 28.1378 19.1669 27.5696L17.8601 27.2571C16.5959 26.9659 15.5376 26.4972 15.5589 25.4531C15.5589 24.5156 16.3899 23.8267 17.8956 23.8267C19.3658 23.8267 20.2678 24.4943 20.3814 25.6378ZM32.5352 31.3551C32.5423 32.8182 31.5408 33.5852 30.4542 33.5852C29.3107 33.5852 28.5721 32.7827 28.565 31.4972V25.0909H25.5394V32.0369C25.5465 34.5866 27.038 36.142 29.2326 36.142C30.8732 36.142 32.0522 35.2969 32.5423 34.0185H32.6559V36H35.5607V25.0909H32.5352V31.3551Z" fill="black"/>
</svg>

<svg xmlns="http://www.w3.org/2000/svg" width="48" height="48" fill="none" viewBox="0 0 48 48">
  <rect width="38" height="38" x="5" y="5" fill="#000" opacity=".2" rx="4"/>
  <path fill="#000" d="M5 13c0-3.771 0-5.657 1.172-6.828C7.343 5 9.229 5 13 5h22c3.771 0 5.657 0 6.828 1.172C43 7.343 43 9.229 43 13v2H5v-2zM20.381 25.638h2.948c-.043-2.593-2.174-4.382-5.412-4.382-3.189 0-5.526 1.761-5.512 4.403-.007 2.145 1.506 3.374 3.964 3.963l1.583.398c1.584.383 2.465.838 2.472 1.818-.007 1.065-1.016 1.79-2.578 1.79-1.598 0-2.749-.739-2.848-2.195h-2.976c.078 3.147 2.33 4.773 5.86 4.773 3.55 0 5.639-1.698 5.646-4.36-.007-2.423-1.833-3.708-4.361-4.276l-1.307-.313c-1.264-.291-2.322-.76-2.301-1.804 0-.937.83-1.626 2.337-1.626 1.47 0 2.372.667 2.485 1.81zm12.154 5.717c.007 1.463-.994 2.23-2.08 2.23-1.144 0-1.883-.802-1.89-2.088v-6.406h-3.026v6.946c.008 2.55 1.499 4.105 3.694 4.105 1.64 0 2.82-.845 3.31-2.123h.113V36h2.905V25.09h-3.026v6.265z"/>
</svg>
